X:1
T: Miss Ramsay
C:
R:Reel
Q: 232
K:G
M:4/4
L:1/8
|:g|b1/2a1/2g1/2f1/2 gd BG GB|cA BG AG Eg|b1/2a1/2g1/2f1/2 gd BG GB|cA dB G2 Gg|
b1/2a1/2g1/2f1/2 gd BG GB|cA BG AG Eg|b1/2a1/2g1/2f1/2 gd BG GB|cA dB G2 Ge|
dg ge db ba|ge dB AG Ee|dd de db ba|ge dB G2 Ge|
dg ge db ba|ge dB AG Eg|dg ge dg ba|ge dB G2 G:|
